X: 27812
T: Morshiul Na Mara
R: hornpipe
M: 4/4
K: Dmixolydian
A2 e2 e2 dB|A2 AB AG EG|A2 e2 e2 dB|GBdg e2 dB|
A2 e2 e2 dB|AcBG AG E2|GEDE GABd|gbag gedB:|
E2 B2 B3d|cBAB c e3´|FBdB FBdB|^GABd ^cAFE|
E2 B2 B3d|cBAB c e3´|fBdB fBdB|^G2 GA GEFE||

